packages/sources/icons/src/vitamix/focus-fill.svg

<svg width="16" height="16" viewBox="0 0 16 16" fill="none" xmlns="http://www.w3.org/2000/svg">
<path fill-rule="evenodd" clip-rule="evenodd" d="M8.66734 2.70799L8.66667 0.666656H7.33334V2.70799C4.91652 3.01323 3.01324 4.9165 2.708 7.33332H0.666672V8.66666L2.708 8.66732C3.01352 11.0839 4.91673 12.9868 7.33334 13.292V15.3333H8.66667L8.66734 13.292C11.0837 12.9865 12.9866 11.0837 13.292 8.66732L15.3333 8.66666V7.33332H13.292C12.9868 4.91672 11.0839 3.01351 8.66734 2.70799ZM6.66667 7.99999C6.66667 7.26361 7.26363 6.66666 8 6.66666C8.73638 6.66666 9.33334 7.26361 9.33334 7.99999C9.33334 8.73637 8.73638 9.33332 8 9.33332C7.26363 9.33332 6.66667 8.73637 6.66667 7.99999Z" fill="#001018"/>
</svg>

<svg width="16" height="16" fill="none" xmlns="http://www.w3.org/2000/svg"><path fill-rule="evenodd" clip-rule="evenodd" d="M8.667 2.708V.667H7.333v2.041a5.336 5.336 0 0 0-4.625 4.625H.667v1.334h2.041a5.336 5.336 0 0 0 4.625 4.625v2.041h1.334v-2.041a5.336 5.336 0 0 0 4.625-4.625h2.041V7.333h-2.041a5.336 5.336 0 0 0-4.625-4.625zM6.667 8a1.333 1.333 0 1 1 2.666 0 1.333 1.333 0 0 1-2.666 0z" fill="#001018"/></svg>
